X:233
T: Kranzsingen
N: A0281
O: Europa, Mitteleuropa, Deutschland
N: J. Ott 1544 No. 3.
R: Romanze, Ballade, Lied
M: 4/1
L: 1/2
K: F
F | c2c2d2c2 | c2B2A2z
B | c2c2c2B2 | A2G2F2z
F | F2G2A3G | F2G2A2z
c | c2c2c3B | A2G2F3

